build/img/sprite/icon-logo.svg

<svg width="64" height="60" viewBox="0 0 64 60" fill="none" xmlns="http://www.w3.org/2000/svg">
<circle cx="30" cy="30" r="29.5" stroke="white" fill="transparent"/>
<path d="M63.2078 10.5356L61.0769 7.42788L59.2867 5.8765L59.2701 4.60788L58.4212 4L57.3559 6.26637L55.7459 5.22236L55.1886 5.78887L55.8148 7.0446L46.5703 15.8584L32.0115 22.9515L27.644 23.9181L26.6165 24.4447L23.9038 27.9511L22.7772 31.7466L22.5127 33.8448L23.0969 35.0974L23.1586 34.6399L24.1991 30.8548L23.2062 38.4985L22.0798 41.9438L20 52.4316H21.8884L21.3175 51.4826L22.3093 46.4718L26.0545 38.9928L25.3657 41.8043L28.2919 52.4316H30.2819L29.4497 51.3724L28.0537 47.2084L27.4639 40.9549L29.6087 36.0147L30.8934 34.7613L36.845 34.77L37.8978 35.8196L35.9732 50.1469L36.05 52.4316H37.9439L37.2455 51.3825L37.506 45.9273L40.4114 35.9413L40.7681 35.9438L47.1446 52.4316H49.0591L48.0865 51.4382L46.353 46.7498L43.6351 34.9205L44.3556 28.8518L44.0028 27.1587L44.3345 25.9676L56.7052 11.9222L58.5897 11.5542L63.3487 13.2859L63.6867 11.9442L63.2078 10.5356Z" fill="white"/>
</svg>

<svg width="64" height="60" fill="none" xmlns="http://www.w3.org/2000/svg"><circle cx="30" cy="30" r="29.5" stroke="#fff" fill="transparent"/><path d="M63.208 10.536l-2.131-3.108-1.79-1.551-.017-1.27L58.421 4l-1.065 2.266-1.61-1.044-.557.567.626 1.256-9.245 8.813-14.559 7.093-4.367.967-1.027.527-2.713 3.506-1.127 3.796-.264 2.098.584 1.252.062-.457 1.04-3.785-.993 7.643-1.126 3.446L20 52.432h1.888l-.57-.95.991-5.01 3.745-7.48-.688 2.812 2.926 10.628h1.99l-.832-1.06-1.396-4.164-.59-6.253 2.145-4.94 1.284-1.254 5.952.009 1.053 1.05-1.925 14.327.077 2.285h1.894l-.699-1.05.261-5.455 2.905-9.986.357.003 6.377 16.488h1.914l-.972-.994-1.734-4.688-2.718-11.83.72-6.068-.352-1.693.331-1.191 12.371-14.046 1.885-.368 4.759 1.732.338-1.342-.48-1.408z" fill="#fff"/></svg>
